dist/images/logos/redstamp-logo.svg

<?xml version="1.0" encoding="UTF-8"?>
<svg width="90px" height="90px" viewBox="0 0 90 90" version="1.1" xmlns="http://www.w3.org/2000/svg" xmlns:xlink="http://www.w3.org/1999/xlink">
    <!-- Generator: Sketch 47.1 (45422) - http://www.bohemiancoding.com/sketch -->
    <title>emoji-redstamp</title>
    <desc>Created with Sketch.</desc>
    <defs></defs>
    <g id="Page-1" stroke="none" stroke-width="1" fill="none" fill-rule="evenodd">
        <g id="emoji-redstamp" fill="#EC5447">
            <g id="Page-1" transform="translate(14.000000, 8.000000)">
                <path d="M25.4521,48.3387 C24.4221,48.3387 23.4791,47.6547 23.1931,46.6157 C22.8711,45.4387 22.7071,44.2197 22.7071,42.9887 L22.7071,31.7277 C22.7071,27.3057 26.3051,23.7077 30.7271,23.7077 C33.8241,23.7077 36.6751,25.5207 37.9921,28.3247 C38.5411,29.4957 38.0371,30.8937 36.8661,31.4427 C35.6901,31.9877 34.2971,31.4877 33.7481,30.3167 C33.2011,29.1487 32.0141,28.3947 30.7271,28.3947 C28.8891,28.3947 27.3931,29.8897 27.3931,31.7277 L27.3931,42.9887 C27.3931,43.8007 27.5001,44.6047 27.7131,45.3747 C28.0551,46.6227 27.3211,47.9117 26.0731,48.2537 C25.8661,48.3117 25.6571,48.3387 25.4521,48.3387" id="Fill-1"></path>
                <path d="M36.4048,56.6854 C34.2378,56.6854 32.0758,56.1654 30.1578,55.1814 C29.0068,54.5894 28.5508,53.1784 29.1418,52.0274 C29.7328,50.8754 31.1428,50.4174 32.2958,51.0104 C33.5748,51.6654 34.9568,51.9994 36.4048,51.9994 C41.3728,51.9994 45.4148,47.9574 45.4148,42.9894 L45.4148,31.7274 C45.4148,23.6294 38.8268,17.0394 30.7268,17.0394 C29.4328,17.0394 28.3838,15.9904 28.3838,14.6964 C28.3838,13.4024 29.4328,12.3534 30.7268,12.3534 C41.4088,12.3534 50.1008,21.0444 50.1008,31.7274 L50.1008,42.9894 C50.1008,50.5424 43.9578,56.6854 36.4048,56.6854" id="Fill-3"></path>
                <path d="M36.4048,68.0389 C22.5918,68.0389 11.3538,56.8009 11.3538,42.9889 L11.3538,31.7269 C11.3538,24.8739 15.0318,18.4639 20.9518,14.9969 C22.0688,14.3429 23.5058,14.7169 24.1578,15.8349 C24.8128,16.9519 24.4368,18.3869 23.3208,19.0419 C18.8298,21.6709 16.0408,26.5329 16.0408,31.7269 L16.0408,42.9889 C16.0408,54.2189 25.1758,63.3519 36.4048,63.3519 C39.7128,63.3519 42.8648,62.5859 45.7758,61.0739 C46.9198,60.4779 48.3378,60.9239 48.9348,62.0729 C49.5318,63.2209 49.0828,64.6359 47.9358,65.2319 C44.4028,67.0679 40.4158,68.0389 36.4048,68.0389" id="Fill-5"></path>
                <path d="M53.9306,59.7684 C53.4066,59.7684 52.8776,59.5924 52.4426,59.2344 C51.4426,58.4104 51.3016,56.9324 52.1236,55.9354 C55.1186,52.3034 56.7676,47.7064 56.7676,42.9894 L56.7676,31.7274 C56.7676,20.9274 49.9766,11.1244 39.8676,7.3354 C39.8646,7.3354 37.2616,6.4694 35.2516,6.1074 C33.1426,5.7264 30.7166,5.6864 30.6926,5.6864 C16.3676,5.6864 4.6866,17.3694 4.6866,31.7274 L4.6866,42.9894 C4.6866,44.2844 3.6376,45.3324 2.3436,45.3324 C1.0486,45.3324 -0.0004,44.2844 -0.0004,42.9894 L-0.0004,31.7274 C-0.0004,14.7844 13.7846,0.9994 30.7266,0.9994 C30.8766,1.0014 33.5976,1.0454 36.0846,1.4944 C38.4546,1.9224 41.3156,2.8774 41.4346,2.9194 C53.4396,7.4174 61.4536,18.9854 61.4536,31.7274 L61.4536,42.9894 C61.4536,48.7924 59.4236,54.4474 55.7406,58.9144 C55.2756,59.4774 54.6056,59.7684 53.9306,59.7684" id="Fill-7"></path>
                <path d="M16.5317,72.9999 C16.0577,72.9999 15.5787,72.8569 15.1657,72.5589 C8.6227,67.8529 3.7667,61.0219 1.4897,53.3299 C1.1227,52.0889 1.8317,50.7859 3.0727,50.4199 C4.3157,50.0519 5.6167,50.7609 5.9847,52.0019 C7.9667,58.7009 12.1987,64.6519 17.9027,68.7549 C18.9527,69.5109 19.1917,70.9759 18.4357,72.0259 C17.9777,72.6609 17.2607,72.9999 16.5317,72.9999" id="Fill-10"></path>
            </g>
        </g>
    </g>
</svg>

<svg height="90" viewBox="0 0 90 90" width="90" xmlns="http://www.w3.org/2000/svg"><g fill="#ec5447" fill-rule="evenodd" transform="translate(14 8)"><path d="m25.4521 48.3387c-1.03 0-1.973-.684-2.259-1.723-.322-1.177-.486-2.396-.486-3.627v-11.261c0-4.422 3.598-8.02 8.02-8.02 3.097 0 5.948 1.813 7.265 4.617.549 1.171.045 2.569-1.126 3.118-1.176.545-2.569.045-3.118-1.126-.547-1.168-1.734-1.922-3.021-1.922-1.838 0-3.334 1.495-3.334 3.333v11.261c0 .812.107 1.616.32 2.386.342 1.248-.392 2.537-1.64 2.879-.207.058-.416.085-.621.085"/><path d="m36.4048 56.6854c-2.167 0-4.329-.52-6.247-1.504-1.151-.592-1.607-2.003-1.016-3.154.591-1.152 2.001-1.61 3.154-1.017 1.279.655 2.661.989 4.109.989 4.968 0 9.01-4.042 9.01-9.01v-11.262c0-8.098-6.588-14.688-14.688-14.688-1.294 0-2.343-1.049-2.343-2.343s1.049-2.343 2.343-2.343c10.682 0 19.374 8.691 19.374 19.374v11.262c0 7.553-6.143 13.696-13.696 13.696"/><path d="m36.4048 68.0389c-13.813 0-25.051-11.238-25.051-25.05v-11.262c0-6.853 3.678-13.263 9.598-16.73 1.117-.654 2.554-.28 3.206.838.655 1.117.279 2.552-.837 3.207-4.491 2.629-7.28 7.491-7.28 12.685v11.262c0 11.23 9.135 20.363 20.364 20.363 3.308 0 6.46-.766 9.371-2.278 1.144-.596 2.562-.15 3.159.999.597 1.148.148 2.563-.999 3.159-3.533 1.836-7.52 2.807-11.531 2.807"/><path d="m53.9306 59.7684c-.524 0-1.053-.176-1.488-.534-1-.824-1.141-2.302-.319-3.299 2.995-3.632 4.644-8.229 4.644-12.946v-11.262c0-10.8-6.791-20.603-16.9-24.392-.003 0-2.606-.866-4.616-1.228-2.109-.381-4.535-.421-4.559-.421-14.325 0-26.006 11.683-26.006 26.041v11.262c0 1.295-1.049 2.343-2.343 2.343-1.295 0-2.344-1.048-2.344-2.343v-11.262c0-16.943 13.785-30.728 30.727-30.728.15.002 2.871.046 5.358.495 2.37.428 5.231 1.383 5.35 1.425 12.005 4.498 20.019 16.066 20.019 28.808v11.262c0 5.803-2.03 11.458-5.713 15.925-.465.563-1.135.854-1.81.854"/><path d="m16.5317 72.9999c-.474 0-.953-.143-1.366-.441-6.543-4.706-11.399-11.537-13.676-19.229-.367-1.241.342-2.544 1.583-2.91 1.243-.368 2.544.341 2.912 1.582 1.982 6.699 6.214 12.65 11.918 16.753 1.05.756 1.289 2.221.533 3.271-.458.635-1.175.974-1.904.974"/></g></svg>
